X:1
T:Title
%%score 1 { 2 | 3 }
L:1/8
Q:1/4=90
M:2/4
K:G
V:1 treble nm="Grand Piano, Soprano"
V:2 bass nm="Choir Pad, The Harvest Is Passing"
V:3 bass 
V:1
 [B,D] [DB]2 [CA] | [B,G] [CE]2 [B,D] | D [^CG]2 [CF] | [^CG][DB] [DA]2 | D [DB]2 [CA] | %5
w: By~Philip~Paul~Bliss,~1874 * *|||||
 [B,G] [Ec]2 [DB] | [DG] [EA]2 [DG] | [DF] [DG]3 | [B,D] [DB]2 [CA] | [B,G] [CE]2 [B,D] | %10
w: |||||
 D [^CG]2 [CF] | [^CG][DB] [DA]2 | D [DB]2 [CA] | [B,G] [Ec]2 [DB] | [DG] [EA]2 [DG] | [DF] [DG]3 | %16
w: ||||||
 [DG] [DA]2 [DA] | [DA][DB] .[DB]2 | [DB] [Ec]2 [Ed] | [Ec] .[DB]3 | [DG] [DA]2 [DA] | %21
w: |||||
 [DA][DB] .[DB]2 | [DG] [EA]2 [DG] | [DF] [DG]3- | [DG]4 |] %25
w: ||||
V:2
 G, G,2 G, | G, G,2 G, | A, A,2 A, | A,G, F,2 | F, G,2 G, | G, G,2 G, | B, C2 B, | A, B,3 | %8
 G, G,2 G, | G, G,2 G, | A, A,2 A, | A,G, F,2 | F, G,2 G, | G, G,2 G, | B, C2 B, | A, B,3 | %16
 G, F,2 F, | F,G, .G,2 | G, G,2 G, | G, .G,3 | G, F,2 F, | F,G, .G,2 | B, C2 B, | A, B,3- | B,4 |] %25
V:3
 z4 | z4 | F, E,2 E, | E,E, D,2 | .D,2 z2 | z4 | G, C,2 D, | D, G,,3 | z4 | z4 | F, E,2 E, | %11
 E,E, D,2 | .D,2 z2 | z4 | G, C,2 D, | D, G,,3 | B,, D,2 D, | .D,2 z2 | z4 | z4 | B,, D,2 D, | %21
 .D,2 z2 | G, C,2 D, | D, G,,3- | G,,4 |] %25

